X:1
T:Roxie ( From CHICAGO)
T:ROXIE
T:F.EBB/J.KANDER
T: 
C:John Kander
Z:All Rights Reserved
L:1/4
Q:1/4=120
M:4/4
K:A
V:1 bass nm="MusicXML Part"
%%MIDI program 0
V:1
|: A,, z E,, z | =G,,/ G,, G,,/- G,,/F,,/ E,, | A,, z E,, z | =G,,/ G,, G,,/- G,,/F,,/ E,, :: %4
[K:treble]"A" z ^B, C E | A G F E | C ^B,/C/-"A#dim7" C/B,/ C |"E7/B" z D B,"E7" z |"A" z ^B, C E | %9
 A G F E | C ^B,/C/-"A#dim7" C/B,/ C |"E7/B" z D B,"E7" z |"C#7" z/ ^B,/ C/>B,/ C C/>B,/ | %13
"F#m7" C/>^B,/ C C C |"C#7/G#" C/>^B,/ C/C/-"C#7" C/B,/ C |"F#m" C2-"F#m/E" C2 | %16
"D#7" z/ ^D/ D/>D/ D D |"G#m" ^D D/D/ D D |"E7" E"D/F#" E"Gdim7" E"E7/G#" E | %19
"Am6" E"A#dim" E/"E7/B"E/- E2 ||[K:bass] A,, z E,, z | =G,,/ G,, G,,/- G,,/F,,/ E,, || %22
[K:treble]"A" z ^B, C E | A G F E | C ^B,/C/-"A#dim7" C/B,/ C |"E7/B" z D B,"E7" z |"A7" z F E A, | %27
 F E C A,/A/- |"D" A2-"D/C#" A2- |"D/B" A2"D/A" z A |"F7" B A B A | B/ A B/- B3/2 A/ | %32
"A/E" B A B A |"B9" B/ A B/-"F7b5" B2 ||1"A" z2"F#dim" z2 |"Bm7b5" D2"E7" B2 ||"A" [A,A] z E z | %37
[K:bass] =G,,/ G,, G,,/- G,,/F,,/ E,, | A,, z E,, z | =G,,/ G,, G,,/- G,,/F,,/ E,, :|2 %40
"A6/E" E,, E, C, B,, ||"F#dim" A,, G,, F,, E,, |[K:treble]"Bm7b5" D4 |"E7" B4 |"A" [A,A] z E z | %45
[K:bass] =G,,/ G,, G,,/- G,,/F,,/ E,, |: A,, z E,, z | =G,,/ G,, G,,/- G,,/F,,/ E,, :| %48
 =G,,/ G,, G,,/- G,,/F,,/ E,, | A,,, z z2 |] %50

